priv/static/svgs/icons_new/software-settings.svg

<svg width="32" height="32" viewBox="0 0 32 32" fill="none" xmlns="http://www.w3.org/2000/svg">
<path d="M10.8958 22.5769C12.9094 22.5769 14.5417 20.941 14.5417 18.9231C14.5417 16.9051 12.9094 15.2692 10.8958 15.2692M10.8958 22.5769C8.8823 22.5769 7.25 20.941 7.25 18.9231C7.25 16.9051 8.8823 15.2692 10.8958 15.2692M10.8958 22.5769L10.8958 25.5M10.8958 15.2692L10.8958 6.50004M21.1041 16.7308C23.1176 16.7308 24.7499 15.0949 24.7499 13.0769C24.7499 11.059 23.1176 9.42308 21.1041 9.42308M21.1041 16.7308C19.0906 16.7308 17.4583 15.0949 17.4583 13.0769C17.4583 11.059 19.0906 9.42308 21.1041 9.42308M21.1041 16.7308L21.1042 25.5M21.1041 9.42308L21.1042 6.5" stroke="black" stroke-linecap="round" stroke-linejoin="round"/>
</svg>

<svg width="32" height="32" viewBox="0 0 32 32" fill="none" xmlns="http://www.w3.org/2000/svg">
  <symbol id="item" viewBox="0 0 32 32" stroke-width="1" fill="none">
    <path d="M10.896 22.577a3.65 3.65 0 0 0 3.646-3.654 3.65 3.65 0 0 0-3.646-3.654m0 7.308a3.65 3.65 0 0 1-3.646-3.654 3.65 3.65 0 0 1 3.646-3.654m0 7.308V25.5m0-10.23V6.5m10.208 10.23a3.65 3.65 0 0 0 3.646-3.653 3.65 3.65 0 0 0-3.646-3.654m0 7.308a3.65 3.65 0 0 1-3.646-3.654 3.65 3.65 0 0 1 3.646-3.654m0 7.308V25.5m0-16.077V6.5" stroke="currentColor" stroke-linecap="round" stroke-linejoin="round"/>
  </symbol>
</svg>
